X:17671
T:Toss the Feathers
R:reel
H:Other versions: #110 (Dmix), #163 (Edor), #263 (Ddor)
D:Kevin Crawford: D Flute Album
Z:id:hn-reel-652
M:C|
K:Ddor
DA~A2 cA~A2|DAAG EDEG|ADED AGAB|1 cded cAGE:|2 cded cAGc||
Addc ~d3g|edcd ed~d2|edad edad|edcd ed~d2|
Addc ~d3g|edcd eg~g2|a2ae gage|fgfd cAGE||
